X:1
T:Title
%%score { 1 | ( 2 3 ) }
L:1/8
Q:1/4=100
M:4/4
K:G
V:1 treble nm="Grand Piano"
V:2 bass 
V:3 bass 
V:1
 [DB]2 [DB]>[DB] [DB]2 [DA][DG] | [EA]2 [EG]>E G D3 | d2 dd c2 BB | [EA]2 [EG]>[^CE] [DA]4 | %4
w: Mrs.~C.~H.~Morris * * * * *||||
 [DB]2 [^C_B][D=B] [=Fd]2 [Ec][DB] | [FA]2 [^DB]>[DF] [EA] [EG]3 | [EG]2 [DF]E D2 GB | %7
w: |||
 A2 G>F [B,DG]4 | d2 B>e d2 B2 | B2 G>c B2 G2 | [B,G]2 [CG]>[DG] [DF] [CE]2 [DE] | %11
w: ||||
 [^CE]2 [DF]>[CG] A4 | d2 B>e d2 B2 | B2 G>c B2 G2 | [=Fd]2 [Ec][DB] [CE] [EA]2 [Ec] | %15
w: ||||
 .[DB]2 [DFB]>[CFA] [B,DG]4 |] %16
w: |
V:2
 [G,,G,]2 [G,,G,]>[G,,G,] [G,,G,]2 [A,,F,][B,,G,] | [C,G,]2 [C,C]>[E,G,C] [G,B,] [G,B,]3 | %2
 [B,DG]2 [B,DG][B,DG] [A,DF]2 [G,DG][G,DG] | [C,C]2 [^C,A,]>[A,,G,] [D,F,]4 | %4
 [G,,G,]2 [G,,G,][G,,G,] [B,,G,]2 [C,G,][D,G,] | [^D,F,]2 [B,,F,]>[B,,B,] [E,B,] [E,B,]3 | %6
 [C,C]2 [C,G,][C,G,C] [D,G,B,]2 [D,G,B,][D,G,D] | [D,CD]2 [D,B,D]>[D,CD] G,,4 | %8
 [G,B,G]2 [G,DG]>[G,CG] [G,B,G]2 [G,DG]2 | [G,DG]2 [G,B,]>[G,EG] [G,DG]2[K:bass] [G,B,D]2 | %10
 [G,,G,]2 [G,,G,]>[B,,G,] [C,G,] [C,G,]2 [B,,^G,] | [A,,A,]2 [A,,A,]>[A,,E,] [D,F,D]4 | %12
 [G,B,G]2 [G,DG]>[G,CG] [G,B,G]2 [G,DG]2 | [G,DG]2 [G,B,]>[G,EG] [G,DG]2[K:bass] [G,B,D]2 | %14
 [G,,G,]2 [A,,G,][B,,G,] [C,G,] [C,C]2 [C,G,] | z E D,>D, G,,4 |] %16
V:3
 x8 | x8 | x8 | x8 | x8 | x8 | x8 | x8 | x8 | x6[K:bass] x2 | x8 | x8 | x8 | x6[K:bass] x2 | x8 | %15
 [D,F,]2 z2 z4 |] %16

